public/logos/supabase.svg

<svg xmlns="http://www.w3.org/2000/svg" width="134" height="27" viewBox="0 0 134 27" fill="none">
<g clip-path="url(#clip0_25_231)">
<path d="M35.0929 15.5786C35.2307 16.8674 36.403 19.0767 39.8051 19.0767C42.7703 19.0767 44.1957 17.1896 44.1957 15.3485C44.1957 13.6915 43.0691 12.3337 40.8396 11.8733L39.2303 11.5282C38.6098 11.4131 38.1961 11.0679 38.1961 10.5155C38.1961 9.87113 38.8397 9.38788 39.6443 9.38788C40.9314 9.38788 41.4141 10.2394 41.5062 10.9068L44.0576 10.3314C43.9198 9.1117 42.8393 7.06348 39.6213 7.06348C37.1846 7.06348 35.3918 8.74349 35.3918 10.7687C35.3918 12.3566 36.38 13.6685 38.5638 14.1517L40.058 14.497C40.9314 14.6811 41.2763 15.0954 41.2763 15.6016C41.2763 16.2 40.7936 16.7293 39.7821 16.7293C38.449 16.7293 37.7822 15.9008 37.7134 15.0033L35.0929 15.5786Z" fill="white"/>
<path d="M53.9659 18.7311H56.8852C56.8392 18.3398 56.7702 17.5574 56.7702 16.6828V7.4082H53.7128V13.9902C53.7128 15.302 52.9314 16.2225 51.5752 16.2225C50.1501 16.2225 49.5063 15.2099 49.5063 13.9442V7.4082H46.4491V14.5656C46.4491 17.028 48.0121 19.0303 50.7476 19.0303C51.9427 19.0303 53.2535 18.57 53.8741 17.5113C53.8741 17.9716 53.9198 18.5009 53.9659 18.7311Z" fill="white"/>
<path d="M63.0899 23.1049V17.6276C63.6414 18.3871 64.791 19.0085 66.3542 19.0085C69.5492 19.0085 71.6867 16.4769 71.6867 13.0478C71.6867 9.6878 69.779 7.15625 66.469 7.15625C64.7682 7.15625 63.5038 7.91568 62.9981 8.79025V7.40939H60.033V23.1049H63.0899ZM68.6755 13.0708C68.6755 15.0961 67.4344 16.2698 65.8712 16.2698C64.3085 16.2698 63.0441 15.0731 63.0441 13.0708C63.0441 11.0686 64.3085 9.8949 65.8712 9.8949C67.4344 9.8949 68.6755 11.0686 68.6755 13.0708Z" fill="white"/>
<path d="M73.418 15.6477C73.418 17.4198 74.8889 19.0538 77.3028 19.0538C78.9804 19.0538 80.0609 18.2712 80.6354 17.3737C80.6354 17.811 80.6814 18.4323 80.7504 18.7315H83.5547C83.4857 18.3403 83.4172 17.5348 83.4172 16.9365V11.3671C83.4172 9.08867 82.0838 7.06348 78.4981 7.06348C75.4637 7.06348 73.8314 9.01962 73.6478 10.7917L76.3601 11.3671C76.4521 10.3775 77.1877 9.52595 78.5206 9.52595C79.8082 9.52595 80.4288 10.1933 80.4288 10.9988C80.4288 11.3901 80.2221 11.7123 79.5784 11.8043L76.797 12.2186C74.9122 12.4948 73.418 13.6224 73.418 15.6477ZM77.9461 16.7754C76.9579 16.7754 76.4749 16.131 76.4749 15.4636C76.4749 14.589 77.0955 14.1517 77.8773 14.0367L80.4288 13.6455V14.1517C80.4288 16.154 79.2335 16.7754 77.9461 16.7754Z" fill="white"/>
<path d="M89.4642 18.731V17.3501C90.0615 18.3167 91.2568 19.0072 92.82 19.0072C96.0385 19.0072 98.1532 16.4526 98.1532 13.0235C98.1532 9.66346 96.2451 7.10892 92.935 7.10892C91.2568 7.10892 90.0157 7.84537 89.5099 8.65082V2.06885H86.4988V18.731H89.4642ZM95.0956 13.0465C95.0956 15.1178 93.8545 16.2685 92.2913 16.2685C90.7513 16.2685 89.4642 15.0948 89.4642 13.0465C89.4642 10.9752 90.7513 9.84758 92.2913 9.84758C93.8545 9.84758 95.0956 10.9752 95.0956 13.0465Z" fill="white"/>
<path d="M99.8843 15.6477C99.8843 17.4198 101.355 19.0538 103.769 19.0538C105.447 19.0538 106.527 18.2712 107.102 17.3737C107.102 17.811 107.148 18.4323 107.217 18.7315H110.021C109.952 18.3403 109.883 17.5348 109.883 16.9365V11.3671C109.883 9.08867 108.55 7.06348 104.964 7.06348C101.93 7.06348 100.298 9.01962 100.114 10.7917L102.826 11.3671C102.918 10.3775 103.654 9.52595 104.987 9.52595C106.275 9.52595 106.895 10.1933 106.895 10.9988C106.895 11.3901 106.688 11.7123 106.044 11.8043L103.263 12.2186C101.378 12.4948 99.8843 13.6224 99.8843 15.6477ZM104.413 16.7754C103.424 16.7754 102.941 16.131 102.941 15.4636C102.941 14.589 103.562 14.1517 104.344 14.0367L106.895 13.6455V14.1517C106.895 16.154 105.7 16.7754 104.413 16.7754Z" fill="white"/>
<path d="M112 15.5786C112.137 16.8674 113.31 19.0767 116.712 19.0767C119.677 19.0767 121.102 17.1896 121.102 15.3485C121.102 13.6915 119.976 12.3337 117.746 11.8733L116.137 11.5282C115.516 11.4131 115.103 11.0679 115.103 10.5155C115.103 9.87113 115.746 9.38788 116.551 9.38788C117.838 9.38788 118.321 10.2394 118.413 10.9068L120.964 10.3314C120.826 9.1117 119.746 7.06348 116.528 7.06348C114.091 7.06348 112.299 8.74349 112.299 10.7687C112.299 12.3566 113.287 13.6685 115.471 14.1517L116.965 14.497C117.838 14.6811 118.183 15.0954 118.183 15.6016C118.183 16.2 117.7 16.7293 116.689 16.7293C115.355 16.7293 114.689 15.9008 114.62 15.0033L112 15.5786Z" fill="white"/>
<path d="M125.745 11.7813C125.814 10.7457 126.688 9.54894 128.274 9.54894C130.02 9.54894 130.756 10.6536 130.802 11.7813H125.745ZM131.101 14.7271C130.733 15.7397 129.952 16.4532 128.527 16.4532C127.009 16.4532 125.745 15.3715 125.676 13.8756H133.767C133.767 13.8295 133.813 13.3693 133.813 12.932C133.813 9.2958 131.722 7.06348 128.228 7.06348C125.332 7.06348 122.665 9.41086 122.665 13.0241C122.665 16.8444 125.4 19.0767 128.504 19.0767C131.285 19.0767 133.078 17.4427 133.653 15.4866L131.101 14.7271Z" fill="white"/>
<path d="M14.9166 25.5927C14.2587 26.4212 12.9247 25.9672 12.9088 24.9093L12.677 9.43555H23.0815C24.9661 9.43555 26.0171 11.6122 24.8453 13.0881L14.9166 25.5927Z" fill="url(#paint0_linear_25_231)"/>
<path d="M14.9166 25.5927C14.2587 26.4212 12.9247 25.9672 12.9088 24.9093L12.677 9.43555H23.0815C24.9661 9.43555 26.0171 11.6122 24.8453 13.0881L14.9166 25.5927Z" fill="url(#paint1_linear_25_231)" fill-opacity="0.2"/>
<path d="M10.6853 0.693555C11.3432 -0.135086 12.6773 0.318949 12.6931 1.37691L12.7947 16.8506H2.52039C0.635797 16.8506 -0.415277 14.674 0.756621 13.1981L10.6853 0.693555Z" fill="white"/>
</g>
<defs>
<linearGradient id="paint0_linear_25_231" x1="12.677" y1="12.8665" x2="21.9242" y2="16.7447" gradientUnits="userSpaceOnUse">
<stop stop-color="white" stop-opacity="0.6"/>
<stop offset="1" stop-color="white"/>
</linearGradient>
<linearGradient id="paint1_linear_25_231" x1="8.57729" y1="7.25323" x2="12.7945" y2="15.1919" gradientUnits="userSpaceOnUse">
<stop stop-color="white"/>
<stop offset="1" stop-color="white" stop-opacity="0"/>
</linearGradient>
<clipPath id="clip0_25_231">
<rect width="133.681" height="26" fill="white" transform="translate(0.258423 0.217285)"/>
</clipPath>
</defs>
</svg>

<svg xmlns="http://www.w3.org/2000/svg" width="134" height="27" fill="none"><g clip-path="url(#a)"><path fill="#fff" d="M35.093 15.579c.138 1.288 1.31 3.498 4.712 3.498 2.965 0 4.39-1.887 4.39-3.729 0-1.657-1.126-3.014-3.355-3.475l-1.61-.345c-.62-.115-1.034-.46-1.034-1.013 0-.644.644-1.127 1.448-1.127 1.287 0 1.77.851 1.862 1.519l2.552-.576c-.138-1.22-1.219-3.268-4.437-3.268-2.436 0-4.23 1.68-4.23 3.706 0 1.588.989 2.9 3.173 3.383l1.494.345c.873.184 1.218.598 1.218 1.105 0 .598-.482 1.127-1.494 1.127-1.333 0-2-.828-2.069-1.726zM53.966 18.731h2.92a19 19 0 0 1-.116-2.048V7.408h-3.057v6.582c0 1.312-.782 2.233-2.138 2.233-1.425 0-2.069-1.013-2.069-2.279V7.408H46.45v7.158c0 2.462 1.563 4.464 4.299 4.464 1.195 0 2.506-.46 3.126-1.519 0 .46.046.99.092 1.22M63.09 23.105v-5.477c.551.76 1.701 1.38 3.264 1.38 3.195 0 5.333-2.531 5.333-5.96 0-3.36-1.908-5.892-5.218-5.892-1.7 0-2.965.76-3.47 1.634V7.41h-2.966v15.695zm5.585-10.034c0 2.025-1.24 3.199-2.804 3.199-1.562 0-2.827-1.197-2.827-3.2 0-2.001 1.264-3.175 2.827-3.175s2.805 1.174 2.805 3.176M73.418 15.648c0 1.772 1.47 3.406 3.885 3.406 1.677 0 2.758-.783 3.332-1.68 0 .437.046 1.058.115 1.358h2.805a13 13 0 0 1-.138-1.796v-5.569c0-2.278-1.333-4.304-4.919-4.304-3.034 0-4.667 1.957-4.85 3.729l2.712.575c.092-.99.828-1.841 2.16-1.841 1.288 0 1.909.667 1.909 1.473 0 .391-.207.713-.85.805l-2.782.415c-1.885.276-3.379 1.403-3.379 3.429m4.528 1.127c-.988 0-1.471-.644-1.471-1.311 0-.875.62-1.312 1.402-1.427l2.552-.392v.507c0 2.002-1.195 2.623-2.483 2.623M89.464 18.731v-1.38c.597.966 1.793 1.656 3.356 1.656 3.219 0 5.333-2.554 5.333-5.984 0-3.36-1.908-5.914-5.218-5.914-1.678 0-2.92.736-3.425 1.542V2.069h-3.011V18.73zm5.632-5.685c0 2.072-1.242 3.223-2.805 3.223-1.54 0-2.827-1.174-2.827-3.222 0-2.072 1.287-3.2 2.827-3.2 1.564 0 2.805 1.128 2.805 3.2M99.884 15.648c0 1.772 1.471 3.406 3.885 3.406 1.678 0 2.758-.783 3.333-1.68 0 .437.046 1.058.115 1.358h2.804a13 13 0 0 1-.138-1.796v-5.569c0-2.278-1.333-4.304-4.919-4.304-3.034 0-4.666 1.957-4.85 3.729l2.712.575c.092-.99.828-1.841 2.161-1.841 1.288 0 1.908.667 1.908 1.473 0 .391-.207.713-.851.805l-2.781.415c-1.885.276-3.379 1.403-3.379 3.429m4.529 1.127c-.989 0-1.472-.644-1.472-1.311 0-.875.621-1.312 1.403-1.427l2.551-.392v.507c0 2.002-1.195 2.623-2.482 2.623M112 15.579c.137 1.288 1.31 3.498 4.712 3.498 2.965 0 4.39-1.887 4.39-3.729 0-1.657-1.126-3.014-3.356-3.475l-1.609-.345c-.621-.115-1.034-.46-1.034-1.013 0-.644.643-1.127 1.448-1.127 1.287 0 1.77.851 1.862 1.519l2.551-.576c-.138-1.22-1.218-3.268-4.436-3.268-2.437 0-4.229 1.68-4.229 3.706 0 1.588.988 2.9 3.172 3.383l1.494.345c.873.184 1.218.598 1.218 1.105 0 .598-.483 1.127-1.494 1.127-1.334 0-2-.828-2.069-1.726zM125.745 11.781c.069-1.035.943-2.232 2.529-2.232 1.746 0 2.482 1.105 2.528 2.232zm5.356 2.946c-.368 1.013-1.149 1.726-2.574 1.726-1.518 0-2.782-1.082-2.851-2.577h8.091c0-.046.046-.507.046-.944 0-3.636-2.091-5.869-5.585-5.869-2.896 0-5.563 2.348-5.563 5.961 0 3.82 2.735 6.053 5.839 6.053 2.781 0 4.574-1.634 5.149-3.59z"/><path fill="url(#b)" d="M14.917 25.593c-.658.828-1.992.374-2.008-.684l-.232-15.473h10.404c1.885 0 2.936 2.176 1.764 3.652z"/><path fill="url(#c)" fill-opacity=".2" d="M14.917 25.593c-.658.828-1.992.374-2.008-.684l-.232-15.473h10.404c1.885 0 2.936 2.176 1.764 3.652z"/><path fill="#fff" d="M10.685.694c.658-.83 1.992-.375 2.008.683l.102 15.474H2.52c-1.884 0-2.935-2.177-1.763-3.653z"/></g><defs><linearGradient id="b" x1="12.677" x2="21.924" y1="12.867" y2="16.745" gradientUnits="userSpaceOnUse"><stop stop-color="#fff" stop-opacity=".6"/><stop offset="1" stop-color="#fff"/></linearGradient><linearGradient id="c" x1="8.577" x2="12.794" y1="7.253" y2="15.192" gradientUnits="userSpaceOnUse"><stop stop-color="#fff"/><stop offset="1" stop-color="#fff" stop-opacity="0"/></linearGradient><clipPath id="a"><path fill="#fff" d="M.258.217H133.94v26H.26z"/></clipPath></defs></svg>
